X:1
T:Title
%%score ( 1 2 ) ( 3 4 )
L:1/8
Q:1/4=90
M:4/4
K:Ab
V:1 treble nm="Grand Piano, Soprano"
V:2 treble 
V:3 bass nm="Choir Pad, Bass"
V:4 bass 
V:1
 [Ec]>[Ec] [CA]>[CA] [CE]>[CE] [CA]>[EG] | [EG]>[DF] [DF]>[DF] [DF]4 | %2
w: By~William~A.~Post * * * * * * *||
 [Dd]>[Dd] [DB]>[DB] [DG]>[DG] [DG]>[DG] | [DF]>[CE] [CE]>[CE] [CE]4 | %4
w: ||
 [Ec]>[Ec] [CA]>[CA] [CE]>[CE] [CA]>[EG] | [EG]>[DF] [DF]>[DF] [DF]4 | %6
w: ||
 [DG]>[DG] [CA]>[CA] [EB]>[EB] [Ec]>[Fd] | [Ec]2 [DB]2 [CA]4 | [EAce]2 [EAc]>c [CEA]2 [CE]>[CE] | %9
w: |||
 [DF]>G [DA]>B [Cc]2 [Ec]>d | [Ec]>[DB] [DB]>[DB] [DB]>[Ec] [DB]>[Ec] | %11
w: ||
 [DB]>[CA] [CA]>[CA] [CA]>[CA] [C_GA]>[CGA] | [DFB]2 [DFA]2 [_C=DG]2 [CDF]2 | %13
w: ||
 [CE]2 [CEA]4 [CA]>[CB] | [Ec]4 [DB]4 | A6 z2 |] %16
w: |||
V:2
 x8 | x8 | x8 | x8 | x8 | x8 | x8 | x8 | x8 | x8 | x8 | x8 | x8 | x8 | x8 | C2 D2 C2 z2 |] %16
V:3
 [A,,A,]>[A,,A,] [A,,A,]>[A,,A,] [A,,A,]>[A,,A,] [A,,A,]>[A,,A,] | %1
 [D,A,]>[D,A,] [D,A,]>[D,A,] [D,A,]4 | [E,G,]>[E,G,] [E,G,]>[E,G,] [E,B,]>[E,B,] [E,G,]>[E,G,] | %3
 [A,,A,]>[A,,A,] [A,,A,]>[A,,A,] [A,,A,]4 | %4
 [A,,A,]>[A,,A,] [A,,A,]>[A,,A,] [A,,A,]>[A,,A,] [A,,A,]>[A,,A,] | %5
 [D,A,]>[D,A,] [D,A,]>[D,A,] [D,B,]4 | [E,B,]>[E,B,] [E,A,]>[E,A,] [E,G,]>[E,G,] A,>[D,A,] | %7
 [E,A,]2 [E,G,]2 [A,,A,]4 | [A,,E,A,]2 [A,,E,A,]2 [A,,E,A,]2 [A,,E,A,]2 | %9
 [A,,F,A,]2 [A,,F,A,]2 [A,,E,A,]2 [A,,E,A,]2 | [E,,E,]2 [G,B,]2 [E,,E,]2 [G,B,]2 | %11
 [A,,E,A,]2 [A,,E,A,]2 [A,,E,A,]2 [A,,E,A,]2 | [D,,D,]2 [D,,D,]2 [=D,,=D,]2 [D,,D,]2 | %13
 [E,,E,]2 [E,,E,]4 [F,,F,]2 | [E,,E,]2 [A,C]2 [E,,E,]2 [G,B,]2 | A,2 F,2 E,2 z2 |] %16
V:4
 x8 | x8 | x8 | x8 | x8 | x8 | x8 | x8 | x8 | x8 | x8 | x8 | x8 | x8 | x8 | A,,6 z2 |] %16

